X: 23487
T: Lex The Former Gobbo
R: reel
M: 4/4
K: Gmajor
GA|BG G2 BGAG|DG G2 BGAG|cA A2 EA A2|cA A2 FAdc|
BG G2 BGAG|DG G2 BGAG|cA A2 EA A2|EAFA G2:|
GB|dg g2 bgag|dg g2 bgag|ea a2 ba a2|ea a2 bgag|
dg g2 bgag|dg g2 bgag|eg g2 ed (3Bcd|eged BG:|

